X:1
T:It Came Upon The Midnight Clear
T:It Came Upon The Midnight Clear
T:Richard S. Willis
T:Edmund H. Sears
C:Richard S. Willis
Z:Edmund H. Sears
L:1/8
M:3/4
K:C
V:1 treble nm="Piano" snm="Pno."
V:1
 G2 |"C" e4 B2 |"F" d4 A2 |"C" G4 A2 | G4 G2 |"F" A4 c2 |"D7" c4 e2 |"G" d6- | d4 G2 |"C" e4 B2 | %10
w: It|came up|on- the|mid night|clear, that|glo- rious|song of|old,|_ From|an- gels|
"F" d4 A2 |"C" G4 A2 | G4 G2 |"F" A4 A2 |"G7" B4 G2 |"C""F" c6- |"C" c4 e2 |"E" e4 E2 | %18
w: bend- ing|near the|earth, To|touch their|harps of|gold;|_ "Peace|on the|
"E7" E4 ^G2 |"Am" A4 B2 | c4 e2 |"G" d4 B2 |"D7" A4 A2 |"G" G6- |"G7" G4 G2 |"C" e4 B2 |"F" d4 A2 | %27
w: earth good|will to|men, From|heaven's all|gra- cious|King."|_ The|world in|sol- emn|
"C" G4 A2 | G4 G2 |"F" A4 A2 |"G7" B4 G2 |"C""F" c6- |"C" c6 |] %33
w: still- ness|lay, to|hear the|an- gels|sing.|_|

